X:10
T:Sweets of May
Z: id:dc-miscellaneous-7
M:6/8
L:1/8
K:G Major
dc|B2G AGF|GAG Gdc|B2G GAB|c3d2c|!
B2G AGF|GAG Gdc|B2G AGF|G3-G:|!
K:A Dorian
zB|ABA A2G|E2F G3|ABA c2d|e2d c2B|!
ABA A2G|E2F G3|ABA BAG|A3-A:|!
K:G Major
Bc|d3 d3|D3 D3|c3 c3|D3 D3|!
G2D G2A|B2A B2c|d2D DEF|G3-G:|!

